svg/blobs-icons/no-decorations/link.svg

<svg xmlns="http://www.w3.org/2000/svg" xmlns:xlink="http://www.w3.org/1999/xlink" preserveAspectRatio="xMidYMid" width="216" height="125" viewBox="0 0 216 125"><defs><style>.cls-3{fill:#ff3a2f}.cls-4{fill:#142a3b}</style></defs><g id="group-154svg"><path d="M36.119 124.455c-2.951.0-5.918-.387-8.846-1.172C18.268 120.871 10.751 115.02 6.112 106.807L4.574 104.08C-4.881 87.343.781 65.845 17.195 56.157l69.22-40.85C94.368 10.611 103.656 9.339 112.54 11.72c9.006 2.411 16.518 8.265 21.158 16.479l1.535 2.716C144.689 47.66 139.028 69.159 122.616 78.846L116.49 82.458S109.186 70.086 109.186 70.086 115.312 66.471 115.312 66.471C125.03 60.736 128.354 47.958 122.723 37.984l-1.535-2.718c-2.73-4.83-7.12-8.263-12.367-9.667C103.686 24.222 98.324 24.965 93.719 27.678L24.499 68.532c-9.72 5.736-13.044 18.513-7.413 28.485L18.624 99.742C21.35 104.567 25.742 107.999 30.99 109.405 36.126 110.778 41.49 110.043 46.091 107.322l15.46-9.125s7.304 12.374 7.304 12.374-15.46 9.124-15.46 9.124C48.061 122.845 42.129 124.455 36.119 124.455z" id="path-1" class="cls-3" fill-rule="evenodd"/><path d="M111.8 113.897C108.85 113.897 105.88 113.509 102.951 112.726 93.947 110.315 86.434 104.46 81.795 96.248L80.258 93.526C70.804 76.786 76.464 55.287 92.875 45.602L99 41.987C102.423 39.972 106.826 41.107 108.839 44.522 110.857 47.939 109.722 52.344 106.304 54.358l-6.125 3.616C90.462 63.71 87.138 76.491 92.77 86.461L94.305 89.182C97.033 94.009 101.423 97.442 106.669 98.847 111.804 100.225 117.169 99.485 121.774 96.765l69.22-40.852C200.714 50.179 204.038 37.399 198.406 27.43L196.867 24.704C194.141 19.88 189.751 16.448 184.504 15.043 179.37 13.668 174.004 14.408 169.4 17.125l-15.46 9.122C150.519 28.272 146.118 27.133 144.101 23.713 142.084 20.297 143.219 15.891 146.636 13.875l15.46-9.124c7.953-4.698 17.227-5.973 26.127-3.59C197.227 3.576 204.741 9.427 209.379 17.641L210.917 20.365C220.373 37.102 214.713 58.601 198.298 68.289l-69.22 40.85C123.741 112.287 117.81 113.897 111.8 113.897z" id="path-2" class="cls-4" fill-rule="evenodd"/></g></svg>

<svg xmlns="http://www.w3.org/2000/svg" xmlns:xlink="http://www.w3.org/1999/xlink" preserveAspectRatio="xMidYMid" width="216" height="125" viewBox="0 0 216 125">
  <defs>
    <style>

      .cls-3 {
        fill: #ff3a2f;
      }

      .cls-4 {
        fill: #142a3b;
      }
    </style>
  </defs>
  <g id="group-154svg">
    <path d="M36.119,124.455 C33.168,124.455 30.201,124.068 27.273,123.283 C18.268,120.871 10.751,115.020 6.112,106.807 C6.112,106.807 4.574,104.080 4.574,104.080 C-4.881,87.343 0.781,65.845 17.195,56.157 C17.195,56.157 86.415,15.307 86.415,15.307 C94.368,10.611 103.656,9.339 112.540,11.720 C121.546,14.131 129.058,19.985 133.698,28.199 C133.698,28.199 135.233,30.915 135.233,30.915 C144.689,47.660 139.028,69.159 122.616,78.846 C122.616,78.846 116.490,82.458 116.490,82.458 C116.490,82.458 109.186,70.086 109.186,70.086 C109.186,70.086 115.312,66.471 115.312,66.471 C125.030,60.736 128.354,47.958 122.723,37.984 C122.723,37.984 121.188,35.266 121.188,35.266 C118.458,30.436 114.068,27.003 108.821,25.599 C103.686,24.222 98.324,24.965 93.719,27.678 C93.719,27.678 24.499,68.532 24.499,68.532 C14.779,74.268 11.455,87.045 17.086,97.017 C17.086,97.017 18.624,99.742 18.624,99.742 C21.350,104.567 25.742,107.999 30.990,109.405 C36.126,110.778 41.490,110.043 46.091,107.322 C46.091,107.322 61.551,98.197 61.551,98.197 C61.551,98.197 68.855,110.571 68.855,110.571 C68.855,110.571 53.395,119.695 53.395,119.695 C48.061,122.845 42.129,124.455 36.119,124.455 Z" id="path-1" class="cls-3" fill-rule="evenodd"/>
    <path d="M111.800,113.897 C108.850,113.897 105.880,113.509 102.951,112.726 C93.947,110.315 86.434,104.460 81.795,96.248 C81.795,96.248 80.258,93.526 80.258,93.526 C70.804,76.786 76.464,55.287 92.875,45.602 C92.875,45.602 99.000,41.987 99.000,41.987 C102.423,39.972 106.826,41.107 108.839,44.522 C110.857,47.939 109.722,52.344 106.304,54.358 C106.304,54.358 100.179,57.974 100.179,57.974 C90.462,63.710 87.138,76.491 92.770,86.461 C92.770,86.461 94.305,89.182 94.305,89.182 C97.033,94.009 101.423,97.442 106.669,98.847 C111.804,100.225 117.169,99.485 121.774,96.765 C121.774,96.765 190.994,55.913 190.994,55.913 C200.714,50.179 204.038,37.399 198.406,27.430 C198.406,27.430 196.867,24.704 196.867,24.704 C194.141,19.880 189.751,16.448 184.504,15.043 C179.370,13.668 174.004,14.408 169.400,17.125 C169.400,17.125 153.940,26.247 153.940,26.247 C150.519,28.272 146.118,27.133 144.101,23.713 C142.084,20.297 143.219,15.891 146.636,13.875 C146.636,13.875 162.096,4.751 162.096,4.751 C170.049,0.053 179.323,-1.222 188.223,1.161 C197.227,3.576 204.741,9.427 209.379,17.641 C209.379,17.641 210.917,20.365 210.917,20.365 C220.373,37.102 214.713,58.601 198.298,68.289 C198.298,68.289 129.078,109.139 129.078,109.139 C123.741,112.287 117.810,113.897 111.800,113.897 Z" id="path-2" class="cls-4" fill-rule="evenodd"/>
  </g>
</svg>
